public/themes/horror/shadow.svg

<?xml version="1.0" encoding="UTF-8" standalone="no"?>
<svg
   viewBox="159.5773 101.5463 276.54851 249.1619"
   width="276.54861"
   height="249.1622"
   preserveAspectRatio="none"
   version="1.1"
   id="svg2"
   sodipodi:docname="shadow.svg"
   inkscape:version="1.4.2 (ebf0e940, 2025-05-08)"
   xmlns:inkscape="http://www.inkscape.org/namespaces/inkscape"
   xmlns:sodipodi="http://sodipodi.sourceforge.net/DTD/sodipodi-0.dtd"
   xmlns="http://www.w3.org/2000/svg"
   xmlns:svg="http://www.w3.org/2000/svg">
  <defs
     id="defs2" />
  <sodipodi:namedview
     id="namedview2"
     pagecolor="#ffffff"
     bordercolor="#000000"
     borderopacity="0.25"
     inkscape:showpageshadow="2"
     inkscape:pageopacity="0.0"
     inkscape:pagecheckerboard="0"
     inkscape:deskcolor="#d1d1d1"
     inkscape:zoom="1.8570106"
     inkscape:cx="80.505733"
     inkscape:cy="130.85547"
     inkscape:window-width="1712"
     inkscape:window-height="971"
     inkscape:window-x="0"
     inkscape:window-y="39"
     inkscape:window-maximized="1"
     inkscape:current-layer="object-0" />
  <g
     id="object-0"
     style="fill:#800a00;fill-opacity:1"
     transform="translate(0.57636067,0.13050139)">
    <path
       fill="#800a00"
       d="m 298.161,158.515 c -1.161,0.03 -2.348,0.379 -3.528,1.173 l -14.805,7.352 -0.052,1.258 c -0.607,14.774 -11.323,81.19 -15.861,90.953 0,0 -47.968,75.398 -53.523,78.16 l 28.514,2.908 c 0.564,-3.33 42.094,-76.172 43.325,-79.869 1.541,-4.631 4.127,-38.061 5.129,-39.763 5.415,-2.682 10.914,-5.159 16.409,-5.26 5.396,-0.1 10.792,1.996 16.354,8.54 1.791,3.607 3.13,7.365 3.731,11.365 0.579,-4.188 0.624,-9.285 -1.386,-13.521 l -5.444,-17.888 -13.89,0.229 c 1.53,-3.926 4.011,-5.849 7.352,-6.414 3.846,-0.65 8.746,0.76 13.838,3.637 2.473,2.869 4.514,6.075 5.831,9.843 -0.18,-4.778 -1.2,-10.397 -4.695,-13.626 l -10.14,-13.65 -15.298,6.438 c 0.972,-3.987 3.148,-7.218 6.196,-9.176 3.384,-2.171 7.79,-2.701 12.498,-0.724 2.856,1.801 5.355,4.093 7.262,7.197 -0.785,-3.586 -2.166,-7.473 -4.644,-9.818 l -12.44,-12.67 -0.715,0.907 c -4.725,5.991 -9.055,10.208 -12.554,12.74 -3.5,2.533 -6.232,3.208 -7.301,2.8 -0.535,-0.203 -0.61,-0.355 -0.698,-0.826 -0.087,-0.471 -0.057,-1.568 0.408,-3.198 0.882,-3.098 3.208,-7.874 7.298,-13.906 2.98,-1.893 5.937,-3.022 8.853,-2.851 -1.746,-1.326 -3.835,-2.397 -6.024,-2.34 z"
       style="fill:#800a00;fill-opacity:1;stroke-width:1"
       id="path1" />
    <path
       style="fill:#800a00;fill-opacity:1;stroke:none;stroke-width:0;stroke-dasharray:none"
       d="m 166.558,338.499 c 24.72433,-25.80567 49.44867,-51.61133 74.173,-77.417 l 1.503,-128.458 c 38.64967,-0.25633 77.29933,-0.51267 115.949,-0.769 0.32767,43.28667 0.65533,86.57333 0.983,129.86 l -64.374,88.863 c 40.532,-5.63167 81.064,-11.26333 121.596,-16.895 -13.8368,-6.46621 -14.64083,-22.94746 0.3366,-28.34002 7.00121,-11.70206 -16.2529,-13.43504 -5.08739,-24.85751 11.01804,-11.57818 8.12799,-28.01641 15.72723,-40.34452 7.6339,-10.90815 -20.02821,-3.95222 -14.83743,-18.66141 -0.5939,-13.44215 20.09179,-23.6165 19.36312,-28.4189 -0.58592,-3.06944 -18.93452,-18.49206 -26.28918,-29.32227 -3.22693,-13.35326 26.74249,-7.50868 18.8064,-17.13898 -13.01974,-0.27669 -27.92016,-23.94634 -10.91382,-28.86882 5.8437,-0.53304 27.08865,-4.05115 18.42545,-10.09571 -21.91589,-5.69504 -44.83886,-3.30937 -67.2103,-5.05778 -59.3386,-1.5852 -119.63604,-3.697333 -177.87995,9.78961 -11.31913,4.50959 -26.37333,13.18786 -26.07597,26.92886 4.80858,12.11859 35.05457,0.91647 26.45707,19.99536 -6.32107,9.55008 -33.20159,16.75861 -18.87848,30.67493 8.2346,4.80619 20.44004,13.88154 7.34234,21.56439 -13.94524,5.43747 -24.73012,26.06951 -10.00638,36.5585 7.85428,6.61486 23.97592,-5.96291 19.8009,10.29006 -5.90944,14.00274 -16.25667,26.1323 -19.51999,41.32075 -2.80904,11.96007 -2.40099,24.45281 -0.47422,36.51346"
       id="path2"
       sodipodi:nodetypes="cccccccccccccccccccccccccc" />
  </g>
</svg>

<?xml version="1.0" encoding="UTF-8" standalone="no"?>
<svg
   viewBox="159.5773 101.5463 277.9269 249.0317"
   width="277.927px"
   height="249.032px"
   preserveAspectRatio="none"
   version="1.1"
   id="svg2"
   sodipodi:docname="shadow.svg"
   inkscape:version="1.4.2 (ebf0e940, 2025-05-08)"
   xmlns:inkscape="http://www.inkscape.org/namespaces/inkscape"
   xmlns:sodipodi="http://sodipodi.sourceforge.net/DTD/sodipodi-0.dtd"
   xmlns="http://www.w3.org/2000/svg"
   xmlns:svg="http://www.w3.org/2000/svg">
  <defs
     id="defs2" />
  <sodipodi:namedview
     id="namedview2"
     pagecolor="#ffffff"
     bordercolor="#000000"
     borderopacity="0.25"
     inkscape:showpageshadow="2"
     inkscape:pageopacity="0.0"
     inkscape:pagecheckerboard="0"
     inkscape:deskcolor="#d1d1d1"
     inkscape:zoom="1.9111209"
     inkscape:cx="112.2378"
     inkscape:cy="149.6504"
     inkscape:window-width="1712"
     inkscape:window-height="971"
     inkscape:window-x="0"
     inkscape:window-y="39"
     inkscape:window-maximized="1"
     inkscape:current-layer="object-0" />
  <g
     id="object-0"
     transform="matrix(1, 0, 0, 1, 0, -8.881784197001252e-16)"
     style="fill:#800a00;fill-opacity:1">
    <path
       fill="#800a00"
       d="M 298.161 158.515 C 297 158.545 295.813 158.894 294.633 159.688 L 279.828 167.04 L 279.776 168.298 C 279.169 183.072 268.453 249.488 263.915 259.251 C 263.915 259.251 215.947 334.649 210.392 337.411 L 238.906 340.319 C 239.47 336.989 281 264.147 282.231 260.45 C 283.772 255.819 286.358 222.389 287.36 220.687 C 292.775 218.005 298.274 215.528 303.769 215.427 C 309.165 215.327 314.561 217.423 320.123 223.967 C 321.914 227.574 323.253 231.332 323.854 235.332 C 324.433 231.144 324.478 226.047 322.468 221.811 L 317.024 203.923 L 303.134 204.152 C 304.664 200.226 307.145 198.303 310.486 197.738 C 314.332 197.088 319.232 198.498 324.324 201.375 C 326.797 204.244 328.838 207.45 330.155 211.218 C 329.975 206.44 328.955 200.821 325.46 197.592 L 315.32 183.942 L 300.022 190.38 C 300.994 186.393 303.17 183.162 306.218 181.204 C 309.602 179.033 314.008 178.503 318.716 180.48 C 321.572 182.281 324.071 184.573 325.978 187.677 C 325.193 184.091 323.812 180.204 321.334 177.859 L 308.894 165.189 L 308.179 166.096 C 303.454 172.087 299.124 176.304 295.625 178.836 C 292.125 181.369 289.393 182.044 288.324 181.636 C 287.789 181.433 287.714 181.281 287.626 180.81 C 287.539 180.339 287.569 179.242 288.034 177.612 C 288.916 174.514 291.242 169.738 295.332 163.706 C 298.312 161.813 301.269 160.684 304.185 160.855 C 302.439 159.529 300.35 158.458 298.161 158.515 Z"
       style="stroke-width:1;fill:#800a00;fill-opacity:1"
       id="path1" />
    <path
       style="fill:#800a00;fill-opacity:1;stroke:none;stroke-width:0;stroke-dasharray:none"
       d="m 166.558,338.499 74.173,-77.417 1.503,-128.458 115.949,-0.769 0.983,129.86 -64.374,88.863 121.596,-16.895 -19.23,-15.602 22.461,-19.537 -36.528,-22.909 47.951,-39.729 -50.595,-14.461 53.399,-27.046 c -16.013,-8.5 -32.026,-17.081 -48.039,-25.743 -12.107,-6.549 0.49,-12.098 37.791,-16.647 15.27,-1.862 1.043,-7.615 -42.68,-17.258 -14.546,-3.208 -1.006,-9.416 40.621,-18.625 42.959,-9.504 -0.777,-14.363 -131.208,-14.579 -33.397,-0.055 -66.68,3.132 -99.848,9.563 -12.036,2.334 -21.568,10.101 -28.597,23.303 -5.453,10.243 5.188,14.908 31.923,13.995 13.549,-0.463 4.376,9.026 -27.519,28.467 -10.365,6.318 -0.499,13.39 29.599,21.216 10.04,2.611 1.577,8.61 -25.391,17.997 -8.82,3.07 -12.298,11.738 -10.432,26.004 1.247,9.535 10.813,10.859 28.697,3.973 12.867,-4.954 8.343,8.07 -13.575,39.074 -10.004,14.151 -13.242,31.176 -9.714,51.074"
       id="path2"
       sodipodi:nodetypes="cccccccccccccccccccccccccccc" />
  </g>
</svg>
